X:1
T:Kas a barc'h Sunfolk 1
Z:Ren Quiniou (http://www.irisa.fr/prive/quiniou)
R:andro
D:Le Fon-Lhart : evit dasal
D:Jean-Michel Veillon : beo
M:4/4
L:1/8
Q:1/4=53
K:D
|:FF/F/ AA/A/ BA/B/ cA/G/|FG F/c/d/c/ F/c/F/F/ AA/A/|BA/B/ cA/G/ FG F2:|
|cc/c/ Ac Bc AG/F/|cc/c/ Ac BA/G/ FA/B/|cc/c/ Ac B/A/B/c/ AG/F/|
cc/c/ Ac BA/G/ FF/F/||
|:GB A>F G/F/G/B/ AG/A/|BA/B/ cB A/B/A/F/ c2|A/G/F/G/ AA G/F/G/B/ AG/A/|
BA/B/ cA/G/ FG F2:|
